modules/gui/qt/pixmaps/misc/theme_daynight.svg

<?xml version="1.0" encoding="UTF-8"?>
<svg width="87px" height="154px" viewBox="0 0 87 154" version="1.1" xmlns="http://www.w3.org/2000/svg" xmlns:xlink="http://www.w3.org/1999/xlink">
    <title>Theme - mix</title>
    <defs>
        <rect id="path-1" x="0" y="0" width="87" height="154" rx="2.40625"></rect>
        <rect id="path-3" x="0" y="0" width="87" height="154" rx="2"></rect>
        <path d="M87,0.764935658 L87,152.59 C87,153.921006 85.9210062,155 84.59,155 L0,155 L0,155 L86.6255948,0.667043717 C86.679659,0.570722394 86.8015706,0.536466249 86.8978919,0.590530475 C86.9609573,0.625928426 87,0.692615198 87,0.764935658 Z" id="path-5"></path>
    </defs>
    <g id="Theme---mix" stroke="none" stroke-width="1" fill="none" fill-rule="evenodd">
        <g id="phone-both-theme">
            <g id="Combined-Shape-+-Combined-Shape-Copy-+-Combined-Shape-Copy-2-+-Combined-Shape-Copy-3-+-Combined-Shape-Copy-4-+-Combined-Shape-Copy-5-Mask">
                <mask id="mask-2" fill="white">
                    <use xlink:href="#path-1"></use>
                </mask>
                <use id="Mask" fill="#FFFFFF" xlink:href="#path-1"></use>
                <path d="M21.65625,63.765625 L21.65625,66.171875 L4.8125,66.171875 L4.8125,63.765625 L21.65625,63.765625 Z M36.09375,58.953125 L36.09375,61.359375 L4.8125,61.359375 L4.8125,58.953125 L36.09375,58.953125 Z M39.703125,20.453125 C40.3675926,20.453125 40.90625,20.9917824 40.90625,21.65625 L40.90625,55.34375 C40.90625,56.0082176 40.3675926,56.546875 39.703125,56.546875 L6.015625,56.546875 C5.35115741,56.546875 4.8125,56.0082176 4.8125,55.34375 L4.8125,21.65625 C4.8125,20.9917824 5.35115741,20.453125 6.015625,20.453125 L39.703125,20.453125 Z" id="Combined-Shape" fill-opacity="0.12" fill="#000000" mask="url(#mask-2)"></path>
                <path d="M62.5625,63.765625 L62.5625,66.171875 L45.71875,66.171875 L45.71875,63.765625 L62.5625,63.765625 Z M77,58.953125 L77,61.359375 L45.71875,61.359375 L45.71875,58.953125 L77,58.953125 Z M80.609375,20.453125 C81.2738426,20.453125 81.8125,20.9917824 81.8125,21.65625 L81.8125,55.34375 C81.8125,56.0082176 81.2738426,56.546875 80.609375,56.546875 L46.921875,56.546875 C46.2574074,56.546875 45.71875,56.0082176 45.71875,55.34375 L45.71875,21.65625 C45.71875,20.9917824 46.2574074,20.453125 46.921875,20.453125 L80.609375,20.453125 Z" id="Combined-Shape-Copy" fill-opacity="0.12" fill="#000000" mask="url(#mask-2)"></path>
                <path d="M21.65625,114.296875 L21.65625,116.703125 L4.8125,116.703125 L4.8125,114.296875 L21.65625,114.296875 Z M36.09375,109.484375 L36.09375,111.890625 L4.8125,111.890625 L4.8125,109.484375 L36.09375,109.484375 Z M39.703125,70.984375 C40.3675926,70.984375 40.90625,71.5230324 40.90625,72.1875 L40.90625,105.875 C40.90625,106.539468 40.3675926,107.078125 39.703125,107.078125 L6.015625,107.078125 C5.35115741,107.078125 4.8125,106.539468 4.8125,105.875 L4.8125,72.1875 C4.8125,71.5230324 5.35115741,70.984375 6.015625,70.984375 L39.703125,70.984375 Z" id="Combined-Shape-Copy-2" fill-opacity="0.12" fill="#000000" mask="url(#mask-2)"></path>
                <path d="M62.5625,114.296875 L62.5625,116.703125 L45.71875,116.703125 L45.71875,114.296875 L62.5625,114.296875 Z M77,109.484375 L77,111.890625 L45.71875,111.890625 L45.71875,109.484375 L77,109.484375 Z M80.609375,70.984375 C81.2738426,70.984375 81.8125,71.5230324 81.8125,72.1875 L81.8125,105.875 C81.8125,106.539468 81.2738426,107.078125 80.609375,107.078125 L46.921875,107.078125 C46.2574074,107.078125 45.71875,106.539468 45.71875,105.875 L45.71875,72.1875 C45.71875,71.5230324 46.2574074,70.984375 46.921875,70.984375 L80.609375,70.984375 Z" id="Combined-Shape-Copy-3" fill-opacity="0.12" fill="#000000" mask="url(#mask-2)"></path>
                <path d="M21.65625,164.828125 L21.65625,167.234375 L4.8125,167.234375 L4.8125,164.828125 L21.65625,164.828125 Z M36.09375,160.015625 L36.09375,162.421875 L4.8125,162.421875 L4.8125,160.015625 L36.09375,160.015625 Z M39.703125,121.515625 C40.3675926,121.515625 40.90625,122.054282 40.90625,122.71875 L40.90625,156.40625 C40.90625,157.070718 40.3675926,157.609375 39.703125,157.609375 L6.015625,157.609375 C5.35115741,157.609375 4.8125,157.070718 4.8125,156.40625 L4.8125,122.71875 C4.8125,122.054282 5.35115741,121.515625 6.015625,121.515625 L39.703125,121.515625 Z" id="Combined-Shape-Copy-4" fill-opacity="0.12" fill="#000000" mask="url(#mask-2)"></path>
                <path d="M62.5625,164.828125 L62.5625,167.234375 L45.71875,167.234375 L45.71875,164.828125 L62.5625,164.828125 Z M77,160.015625 L77,162.421875 L45.71875,162.421875 L45.71875,160.015625 L77,160.015625 Z M80.609375,121.515625 C81.2738426,121.515625 81.8125,122.054282 81.8125,122.71875 L81.8125,156.40625 C81.8125,157.070718 81.2738426,157.609375 80.609375,157.609375 L46.921875,157.609375 C46.2574074,157.609375 45.71875,157.070718 45.71875,156.40625 L45.71875,122.71875 C45.71875,122.054282 46.2574074,121.515625 46.921875,121.515625 L80.609375,121.515625 Z" id="Combined-Shape-Copy-5" fill-opacity="0.12" fill="#000000" mask="url(#mask-2)"></path>
                <path d="M2.40625,0 L84.59375,0 C85.9226852,-2.44121432e-16 87,1.07731482 87,2.40625 L87,14.4375 L87,14.4375 L0,14.4375 L0,2.40625 C-1.62747621e-16,1.07731482 1.07731482,2.44121432e-16 2.40625,0 Z" id="Rectangle" fill="#FF610A" mask="url(#mask-2)"></path>
            </g>
            <mask id="mask-4" fill="white">
                <use xlink:href="#path-3"></use>
            </mask>
            <g id="Mask"></g>
            <g id="file" mask="url(#mask-4)">
                <g transform="translate(0.000000, -1.000000)">
                    <mask id="mask-6" fill="white">
                        <use xlink:href="#path-5"></use>
                    </mask>
                    <use id="Mask" stroke="none" fill="#222222" fill-rule="evenodd" xlink:href="#path-5"></use>
                    <path d="M21.65625,64.765625 L21.65625,67.171875 L4.8125,67.171875 L4.8125,64.765625 L21.65625,64.765625 Z M36.09375,59.953125 L36.09375,62.359375 L4.8125,62.359375 L4.8125,59.953125 L36.09375,59.953125 Z M39.703125,21.453125 C40.3675926,21.453125 40.90625,21.9917824 40.90625,22.65625 L40.90625,56.34375 C40.90625,57.0082176 40.3675926,57.546875 39.703125,57.546875 L6.015625,57.546875 C5.35115741,57.546875 4.8125,57.0082176 4.8125,56.34375 L4.8125,22.65625 C4.8125,21.9917824 5.35115741,21.453125 6.015625,21.453125 L39.703125,21.453125 Z" id="Combined-Shape" stroke="none" fill-opacity="0.08" fill="#FFFFFF" fill-rule="evenodd" mask="url(#mask-6)"></path>
                    <path d="M62.5625,64.765625 L62.5625,67.171875 L45.71875,67.171875 L45.71875,64.765625 L62.5625,64.765625 Z M77,59.953125 L77,62.359375 L45.71875,62.359375 L45.71875,59.953125 L77,59.953125 Z M80.609375,21.453125 C81.2738426,21.453125 81.8125,21.9917824 81.8125,22.65625 L81.8125,56.34375 C81.8125,57.0082176 81.2738426,57.546875 80.609375,57.546875 L46.921875,57.546875 C46.2574074,57.546875 45.71875,57.0082176 45.71875,56.34375 L45.71875,22.65625 C45.71875,21.9917824 46.2574074,21.453125 46.921875,21.453125 L80.609375,21.453125 Z" id="Combined-Shape-Copy" stroke="none" fill-opacity="0.08" fill="#FFFFFF" fill-rule="evenodd" mask="url(#mask-6)"></path>
                    <path d="M21.65625,115.296875 L21.65625,117.703125 L4.8125,117.703125 L4.8125,115.296875 L21.65625,115.296875 Z M36.09375,110.484375 L36.09375,112.890625 L4.8125,112.890625 L4.8125,110.484375 L36.09375,110.484375 Z M39.703125,71.984375 C40.3675926,71.984375 40.90625,72.5230324 40.90625,73.1875 L40.90625,106.875 C40.90625,107.539468 40.3675926,108.078125 39.703125,108.078125 L6.015625,108.078125 C5.35115741,108.078125 4.8125,107.539468 4.8125,106.875 L4.8125,73.1875 C4.8125,72.5230324 5.35115741,71.984375 6.015625,71.984375 L39.703125,71.984375 Z" id="Combined-Shape-Copy-2" stroke="none" fill-opacity="0.08" fill="#FFFFFF" fill-rule="evenodd" mask="url(#mask-6)"></path>
                    <path d="M62.5625,115.296875 L62.5625,117.703125 L45.71875,117.703125 L45.71875,115.296875 L62.5625,115.296875 Z M77,110.484375 L77,112.890625 L45.71875,112.890625 L45.71875,110.484375 L77,110.484375 Z M80.609375,71.984375 C81.2738426,71.984375 81.8125,72.5230324 81.8125,73.1875 L81.8125,106.875 C81.8125,107.539468 81.2738426,108.078125 80.609375,108.078125 L46.921875,108.078125 C46.2574074,108.078125 45.71875,107.539468 45.71875,106.875 L45.71875,73.1875 C45.71875,72.5230324 46.2574074,71.984375 46.921875,71.984375 L80.609375,71.984375 Z" id="Combined-Shape-Copy-3" stroke="none" fill-opacity="0.08" fill="#FFFFFF" fill-rule="evenodd" mask="url(#mask-6)"></path>
                    <path d="M21.65625,165.828125 L21.65625,168.234375 L4.8125,168.234375 L4.8125,165.828125 L21.65625,165.828125 Z M36.09375,161.015625 L36.09375,163.421875 L4.8125,163.421875 L4.8125,161.015625 L36.09375,161.015625 Z M39.703125,122.515625 C40.3675926,122.515625 40.90625,123.054282 40.90625,123.71875 L40.90625,157.40625 C40.90625,158.070718 40.3675926,158.609375 39.703125,158.609375 L6.015625,158.609375 C5.35115741,158.609375 4.8125,158.070718 4.8125,157.40625 L4.8125,123.71875 C4.8125,123.054282 5.35115741,122.515625 6.015625,122.515625 L39.703125,122.515625 Z" id="Combined-Shape-Copy-4" stroke="none" fill-opacity="0.08" fill="#FFFFFF" fill-rule="evenodd" mask="url(#mask-6)"></path>
                    <path d="M62.5625,165.828125 L62.5625,168.234375 L45.71875,168.234375 L45.71875,165.828125 L62.5625,165.828125 Z M77,161.015625 L77,163.421875 L45.71875,163.421875 L45.71875,161.015625 L77,161.015625 Z M80.609375,122.515625 C81.2738426,122.515625 81.8125,123.054282 81.8125,123.71875 L81.8125,157.40625 C81.8125,158.070718 81.2738426,158.609375 80.609375,158.609375 L46.921875,158.609375 C46.2574074,158.609375 45.71875,158.070718 45.71875,157.40625 L45.71875,123.71875 C45.71875,123.054282 46.2574074,122.515625 46.921875,122.515625 L80.609375,122.515625 Z" id="Combined-Shape-Copy-5" stroke="none" fill-opacity="0.08" fill="#FFFFFF" fill-rule="evenodd" mask="url(#mask-6)"></path>
                    <path d="M2.40625,1 L84.59375,1 C85.9226852,1 87,2.07731482 87,3.40625 L87,15.4375 L87,15.4375 L0,15.4375 L0,3.40625 C-1.62747621e-16,2.07731482 1.07731482,1 2.40625,1 Z" id="Rectangle" stroke="none" fill="#FF8800" fill-rule="evenodd" mask="url(#mask-6)"></path>
                </g>
            </g>
            <circle id="Oval" fill="#FF8800" mask="url(#mask-4)" cx="72.1875" cy="139.5625" r="7.21875"></circle>
        </g>
    </g>
</svg>

<svg viewBox="0 0 87 154" xmlns="http://www.w3.org/2000/svg" xmlns:xlink="http://www.w3.org/1999/xlink">
  <defs>
    <rect id="a" width="87" height="154" rx="2.406"/>
    <rect id="c" width="87" height="154" rx="2"/>
    <path id="e" d="M87 .765V152.59a2.41 2.41 0 0 1-2.41 2.41H0L86.626.667A.2.2 0 0 1 87 .765Z"/>
  </defs>
  <g fill="none" fill-rule="evenodd">
    <mask id="b" fill="#fff">
      <use xlink:href="#a"/>
    </mask>
    <use fill="#FFF" xlink:href="#a"/>
    <path d="M21.656 63.766v2.406H4.813v-2.406h16.843Zm14.438-4.813v2.406H4.812v-2.406h31.282Zm3.61-38.5c.664 0 1.202.539 1.202 1.203v33.688c0 .664-.538 1.203-1.203 1.203H6.016a1.203 1.203 0 0 1-1.204-1.203V21.656c0-.664.54-1.203 1.204-1.203h33.687Zm22.859 43.313v2.406H45.718v-2.406h16.843ZM77 58.953v2.406H45.719v-2.406H77Zm3.61-38.5c.664 0 1.203.539 1.203 1.203v33.688c0 .664-.54 1.203-1.204 1.203H46.922a1.203 1.203 0 0 1-1.203-1.203V21.656c0-.664.538-1.203 1.203-1.203h33.687Zm-58.954 93.844v2.406H4.813v-2.406h16.843Zm14.438-4.813v2.407H4.812v-2.407h31.282Zm3.61-38.5c.664 0 1.202.539 1.202 1.204v33.687c0 .664-.538 1.203-1.203 1.203H6.016a1.203 1.203 0 0 1-1.204-1.203V72.187c0-.664.54-1.203 1.204-1.203h33.687Zm22.859 43.313v2.406H45.718v-2.406h16.843ZM77 109.484v2.407H45.719v-2.407H77Zm3.61-38.5c.664 0 1.203.539 1.203 1.204v33.687c0 .664-.54 1.203-1.204 1.203H46.922a1.203 1.203 0 0 1-1.203-1.203V72.187c0-.664.538-1.203 1.203-1.203h33.687Zm-58.954 93.844v2.406H4.813v-2.406h16.843Zm14.438-4.812v2.406H4.812v-2.406h31.282Zm3.61-38.5c.664 0 1.202.538 1.202 1.203v33.687c0 .665-.538 1.203-1.203 1.203H6.016a1.203 1.203 0 0 1-1.204-1.203V122.72c0-.665.54-1.203 1.204-1.203h33.687Zm22.859 43.312v2.406H45.718v-2.406h16.843ZM77 160.016v2.406H45.719v-2.406H77Zm3.61-38.5c.664 0 1.203.538 1.203 1.203v33.687c0 .665-.54 1.203-1.204 1.203H46.922a1.203 1.203 0 0 1-1.203-1.203V122.72c0-.665.538-1.203 1.203-1.203h33.687Z" fill="#000" fill-opacity=".12" mask="url(#b)"/>
    <path d="M2.406 0h82.188A2.406 2.406 0 0 1 87 2.406v12.031H0V2.408A2.406 2.406 0 0 1 2.406 0Z" fill="#FF610A" mask="url(#b)"/>
    <mask id="d" fill="#fff">
      <use xlink:href="#c"/>
    </mask>
    <g mask="url(#d)">
      <g transform="translate(0 -1)">
        <mask id="f" fill="#fff">
          <use xlink:href="#e"/>
        </mask>
        <use fill="#222" xlink:href="#e"/>
        <path d="M21.656 64.766v2.406H4.813v-2.406h16.843Zm14.438-4.813v2.406H4.812v-2.406h31.282Zm3.61-38.5c.664 0 1.202.539 1.202 1.203v33.688c0 .664-.538 1.203-1.203 1.203H6.016a1.203 1.203 0 0 1-1.204-1.203V22.656c0-.664.54-1.203 1.204-1.203h33.687Zm22.859 43.313v2.406H45.718v-2.406h16.843ZM77 59.953v2.406H45.719v-2.406H77Zm3.61-38.5c.664 0 1.203.539 1.203 1.203v33.688c0 .664-.54 1.203-1.204 1.203H46.922a1.203 1.203 0 0 1-1.203-1.203V22.656c0-.664.538-1.203 1.203-1.203h33.687Zm-58.954 93.844v2.406H4.813v-2.406h16.843Zm14.438-4.813v2.407H4.812v-2.407h31.282Zm3.61-38.5c.664 0 1.202.539 1.202 1.204v33.687c0 .664-.538 1.203-1.203 1.203H6.016a1.203 1.203 0 0 1-1.204-1.203V73.187c0-.664.54-1.203 1.204-1.203h33.687Zm22.859 43.313v2.406H45.718v-2.406h16.843ZM77 110.484v2.407H45.719v-2.407H77Zm3.61-38.5c.664 0 1.203.539 1.203 1.204v33.687c0 .664-.54 1.203-1.204 1.203H46.922a1.203 1.203 0 0 1-1.203-1.203V73.187c0-.664.538-1.203 1.203-1.203h33.687Zm-58.954 93.844v2.406H4.813v-2.406h16.843Zm14.438-4.812v2.406H4.812v-2.406h31.282Zm3.61-38.5c.664 0 1.202.538 1.202 1.203v33.687c0 .665-.538 1.203-1.203 1.203H6.016a1.203 1.203 0 0 1-1.204-1.203V123.72c0-.665.54-1.203 1.204-1.203h33.687Zm22.859 43.312v2.406H45.718v-2.406h16.843ZM77 161.016v2.406H45.719v-2.406H77Zm3.61-38.5c.664 0 1.203.538 1.203 1.203v33.687c0 .665-.54 1.203-1.204 1.203H46.922a1.203 1.203 0 0 1-1.203-1.203V123.72c0-.665.538-1.203 1.203-1.203h33.687Z" fill="#FFF" fill-opacity=".08" mask="url(#f)"/>
        <path d="M2.406 1h82.188A2.406 2.406 0 0 1 87 3.406v12.031H0V3.408A2.406 2.406 0 0 1 2.406 1Z" fill="#F80" mask="url(#f)"/>
      </g>
    </g>
    <circle cx="72.188" cy="139.56" r="7.219" fill="#F80" mask="url(#d)"/>
  </g>
</svg>
